X:1
T:Title
%%score { 1 | 2 }
L:1/8
Q:1/4=112
M:4/4
K:Ab
V:1 treble nm="Grand Piano"
V:2 treble 
V:1
 c2 c>d c2 BA | [Fc]2 [FB]2 F4 | G2 G>F E2 [EB][EB] | [EA]2 B2 c4 | %4
w: John~R.~Sweney * * * * *||||
 [Ec]2 [Ec]>[Fd] [Ec]2 [DB][CA] | [DB]2 [Ec]2 [Fd]4 | G2 G>F E2 dd | c2 B2 [CA]4 | %8
w: ||||
 [CA]2 (3ECE A2 (3EAc | e2 f2 d4 | B2 (3GEG B2 (3EGB | d2 e2 c4 | c2 (3c_c=c e2 (3cBA | %13
w: |||||
 [Fc]2 [FB]2 F4 | G2 (3GFE B2 [Gd]>[Gd] | [EAc]2 [DGB]2 [CEA]4 |] %16
w: |||
V:2
 [A,E]2 [A,E]>[A,F] [A,E]2 [A,DE][K:bass][A,CE] | [D,D]2 [D,D]2 [D,B,D]4 | %2
 [E,B,D]2 [E,B,D]>[E,A,D] [E,G,D]2 [D,G,][D,G,] | [C,A,]2 [E,G,E]2 [A,E]4 | %4
 [A,,A,]2 [A,,A,]>[A,,A,] [A,,A,]2 [A,,E,][A,,E,] | [D,F,]2 [C,=A,]2 [B,,B,]4 | %6
 [E,B,D]2 [E,B,D]>[E,A,D] [E,G,D]2 [E,B,E][E,B,E] | [E,A,E]2 [E,G,D]2 [A,,A,]4 | %8
 [A,,E,]2 (3E,C,E, A,2 (3E,A,[K:treble]C | [A,CA]2 [=A,CF]2 [B,F]4 | %10
 [E,G,E]2 (3G,E,G, B,2 (3E,G,B, | [G,B,E]2 [G,B,E]2 [A,E]4 | %12
 [A,EA]2 (3[A,-EA-][A,=DA][A,EA] [A,CA]2[K:bass] (3[A,E]-[A,_DE][A,CE] | [D,D]2 [D,D]2 [D,B,D]4 | %14
 [E,B,D]2 (3G,F,E, B,2 [E,B,]>[E,B,] | E,2 E,2 A,,4 |] %16

